svg/u1f3bb.svg

<svg viewBox="0 0 128 128" xmlns="http://www.w3.org/2000/svg">
  <defs/>
  <path d="M67.96,113.21 L66.17,112 L114.82,40.52 L116.6,41.73 Z" fill="#F7CF92"/>
  <path d="M114.82,40.52 C114.83,40.52 119.65,43.77 119.65,43.77 L69.84,117.5 L72.77,120.86 L122.86,46.73 C125.12,43.14 123.92,41.54 122.51,40.64 C121.31,39.89 120.36,40.07 120.98,39.53 C121.49,39.07 122.34,38.43 122.05,37.87 C121.75,37.29 121.22,36.57 118.95,37.67 C116.45,38.88 114.71,40.45 114.82,40.52 Z" fill="#FF7043"/>
  <path d="M76.29,115.65 C75.1,114.87 72.4,113.59 71.36,115.21 L71.3,115.31 C70.93,115.86 70.79,116.11 70.26,115.77 L68.12,114.41 C67.74,114.16 67.58,113.76 67.95,113.21 L68.18,112.86 C68.63,112.2 68.17,111.13 67.18,110.48 L64.67,114.38 C63.99,115.4 64.28,116.42 65.17,117.01 L68.75,119.3 L68.15,120.19 C67.65,120.95 67.95,122.04 68.84,122.63 L69.13,122.82 C70.02,123.41 71.15,123.27 71.66,122.51 L72.71,120.95 L76.29,115.65 Z" fill="#455A64"/>
  <path d="M90.38,24.12 C89.8,24.07 89.22,24.24 88.71,24.48 C87.32,25.14 86.3,24.62 85.81,24.03 C84.83,22.83 85.28,20.83 86.83,19.56 C88.38,18.29 90.43,18.24 91.41,19.44 C91.82,19.94 91.97,20.6 91.92,21.24 C91.89,21.55 91.75,21.75 91.91,22.05 C92.05,22.31 92.52,22.64 93.16,23.18 C93.43,23.41 92.51,24.96 92.19,24.82 C90.81,24.19 90.63,24.14 90.38,24.12 Z" fill="#455A64"/>
  <path d="M100.652,14.384 C101.635,15.585 101.178,17.585 99.631,18.851 C98.084,20.118 96.033,20.171 95.049,18.97 C94.066,17.769 94.523,15.769 96.07,14.503 C97.618,13.236 99.669,13.183 100.652,14.384 Z" fill="#455A64"/>
  <path d="M74.92,53.32 C74.62,53.03 74.33,52.78 74.03,52.51 L16.01,109.06 C21.36,115.49 29.34,121.52 39.51,123.01 C48.74,124.36 54.55,119.58 58.02,111.91 C59.17,109.37 61.16,106.02 62.92,105.27 C63.58,104.99 64.47,104.52 64.2,103.61 C64.08,103.2 63.72,103.09 63.13,102.54 C62.66,102.1 62.17,101.45 62.06,101.31 C59.05,97.53 56.98,95.19 61.33,90.55 C65.57,86.02 70.44,85.91 72.63,87.97 C73.03,88.34 73.58,88.48 74.08,88.27 C74.15,88.24 74.21,88.21 74.28,88.19 C74.95,87.91 75.25,87.17 75.06,86.47 C74.66,85.06 74.96,83.82 75.53,82.58 C77.22,78.92 92.14,69.97 74.92,53.32 Z" fill="#A65F3E"/>
  <path d="M101.119,28.4 L71.269,58.89 L69.471,57.13 L99.321,26.64 L101.119,28.4 Z" fill="#FF7043"/>
  <path d="M71.32,49.37 C52.44,33.2 44.61,53.8 38.59,52.27 C37.16,51.91 36.26,53.4 36.92,54.7 C37.23,55.31 39.4,58.76 35.58,63.05 C32.82,66.14 29.97,66.95 27.33,66.13 C26.54,65.88 25.78,65.34 25.1,65.1 C24.42,64.86 23.57,65.08 23.38,67.08 C23.27,68.26 22.67,69.11 20.86,69.84 C17.33,71.25 14.16,72.57 11.28,74.78 C5.09,79.54 1.98,86.72 5.91,95.52 C9.84,104.32 20.41,117.17 35.99,119.55 C45.33,120.98 51.17,116.18 54.63,108.46 C55.77,105.91 57.35,102.87 59.13,102.13 C59.8,101.85 60.49,101.6 60.51,100.76 C60.53,99.95 59.25,99.49 58.17,98.25 C55.54,95.23 53.54,91.5 57.87,86.88 C62.13,82.34 67.05,82.25 69.28,84.35 C69.68,84.73 70.25,84.87 70.76,84.66 C70.82,84.63 70.88,84.61 70.94,84.58 C71.62,84.3 71.93,83.55 71.72,82.84 C71.31,81.41 71.6,80.17 72.17,78.91 C73.82,75.25 91.22,66.41 71.32,49.37 Z" fill="#FF7043"/>
  <path d="M15.02,80.78 C17.22,82.92 18.95,85.74 19.33,88.65 C19.77,92.1 18.29,95.18 16.36,97.6 C15.64,98.51 14.54,99.52 14.37,101.46 C14.05,105.07 16.5,105.87 17.07,106.73 C17.64,107.59 17.93,108.81 17.29,109.4 C16.82,109.83 16.01,109.73 15.38,109.34 C14.75,108.95 14.32,108.29 13.83,107.72 C7.71,100.67 3.59,94.98 4.16,85.82 C4.27,84.07 6.83,76.98 8.74,76.43 C10.53,75.9 13.66,79.46 15.02,80.78 Z" fill="#455A64"/>
  <path d="M32.706,79.186 L28.016,89.196 L27.564,88.984 L32.254,78.974 L32.706,79.186 Z" fill="#CFD8DC"/>
  <path d="M35.067,80.624 L29.437,90.434 L29.003,90.186 L34.633,80.376 L35.067,80.624 Z" fill="#CFD8DC"/>
  <path d="M37.739,82.251 L30.699,91.571 L30.301,91.269 L37.341,81.949 L37.739,82.251 Z" fill="#CFD8DC"/>
  <path d="M39.546,84.035 L32.296,93.175 L31.904,92.865 L39.154,83.725 L39.546,84.035 Z" fill="#CFD8DC"/>
  <path d="M103.95,30.31 C107.17,25.98 110.03,25.39 114.24,24.23 C119.12,22.89 122.88,22.05 123.78,16.95 C124.93,10.46 118.26,4.98 112.75,4.77 C110.23,4.67 106.74,6.44 106.67,9.76 C106.62,12.25 108.19,13.43 109.17,14.34 C106.37,16.7 92.6,16.97 90.88,26.26 C90.04,30.79 90.81,30.37 94.44,32.64 C95.92,33.56 100.33,35.17 103.95,30.31 Z" fill="#FF7043"/>
  <path d="M110.82,15.53 C110.82,15.53 113.4,17.58 114.16,17.95 C114.16,17.95 106.66,20.98 102.99,22.57 C96.91,25.21 95.74,30.53 95.74,30.53 C93.87,32.65 57.87,68.85 57.87,68.85 L48.55,61.88 C48.55,61.88 89.74,27.03 95.54,22.45 C99.66,19.21 110.82,15.53 110.82,15.53 Z" fill="#455A64"/>
  <path d="M116.61,19.94 C114.13,19.43 113.76,17.69 113.76,17.69 C113.76,17.69 116.4,19.9 118.89,18.13 C119.85,17.45 120,16.59 119.94,16.22 C119.68,14.53 117.93,15.16 117.9,15.18 C117.44,15.48 117.08,15.32 116.78,14.99 C116.48,14.67 116.69,14.08 117.15,13.78 C118.5,12.92 121.93,13.16 121.66,16.7 C121.43,19.92 118.31,20.3 116.61,19.94 Z" fill="#37474F"/>
  <path d="M50.28,98.13 C50.72,97.33 50.23,96.07 49.22,95.87 L49.27,95.82 C48.52,95.73 47.79,96.16 47.55,96.83 C43.86,94.54 49.23,89.03 50.85,87.12 C54.16,83.2 55.01,79.88 52.1,78.07 C52.09,78.07 51.03,77.36 50.38,77.69 C49.35,78.2 49.15,79.08 49.25,79.44 C49.56,80.58 51.07,81.55 52.01,79.95 C53.28,84.09 45.08,88.3 44.71,93.52 C44.07,96.06 47.27,99.8 49.66,98.84 L49.64,98.8 C49.91,98.64 50.14,98.41 50.28,98.13 Z" fill="#37474F"/>
  <path d="M22.49,72.2 C23.16,71.73 24.33,72.04 24.62,72.91 L24.66,72.86 C24.82,73.52 24.52,74.21 23.96,74.5 C26.42,77.55 30.72,72.2 32.23,70.57 C35.34,67.22 38.2,66.12 40.15,68.52 C40.16,68.52 40.9,69.4 40.69,70.01 C40.35,70.98 39.6,71.25 39.26,71.2 C38.21,71.04 37.18,69.8 38.5,68.8 C34.67,68.09 31.85,75.82 27.25,76.7 C25.06,77.53 21.37,75.07 21.95,72.84 L21.99,72.85 C22.07,72.59 22.25,72.35 22.49,72.2 Z" fill="#37474F"/>
  <path d="M123.38,12.57 C122.52,11.28 121.6,11.13 120.32,10.92 C119.04,10.72 117.69,10.9 116.74,11.48 C113.39,13.46 113.5,16.07 113.76,17.7 C112.78,17.04 111.49,13.68 114.53,10.68 C116.04,9.19 118.84,8.71 120.73,9.43 C122.74,10.22 123.38,12.57 123.38,12.57 Z" fill="#F7CF92"/>
  <path d="M34.24,94.5 C34.24,94.5 31.95,96.97 29.47,98.07 C27.81,98.81 27.27,99.2 25.8,100.04 C24.33,100.88 18.3,108.25 18.3,108.25 C17.97,108.74 17.63,109.25 17.02,109.44 C16.41,109.63 14.8,107.78 14.8,107.78 C14.8,107.78 20.18,97.36 22.53,93 C24.52,89.3 26.9,87.51 26.9,87.51 L34.24,94.5 Z" fill="#455A64"/>
  <path d="M32.314,78.893 L93.044,25.163 Q93.232,24.997 93.397,25.184 Q93.48,25.278 93.475,25.366 Q93.469,25.454 93.376,25.537 L32.646,79.267 Q32.552,79.35 32.464,79.345 Q32.376,79.339 32.293,79.246 Q32.127,79.058 32.314,78.893 Z" fill="#CFD8DC"/>
  <path d="M34.681,80.315 L94.011,26.105 Q94.104,26.021 94.192,26.025 Q94.28,26.029 94.365,26.121 Q94.533,26.306 94.349,26.475 L35.019,80.685 Q34.926,80.769 34.838,80.765 Q34.75,80.761 34.665,80.669 Q34.497,80.484 34.681,80.315 Z" fill="#CFD8DC"/>
  <path d="M37.368,81.919 L94.958,27.039 Q95.139,26.867 95.311,27.048 Q95.397,27.138 95.395,27.226 Q95.393,27.315 95.302,27.401 L37.712,82.281 Q37.622,82.367 37.534,82.365 Q37.445,82.363 37.359,82.272 Q37.187,82.091 37.368,81.919 Z" fill="#CFD8DC"/>
  <path d="M39.175,83.701 L96.015,27.971 Q96.193,27.796 96.369,27.975 Q96.456,28.064 96.455,28.153 Q96.454,28.241 96.365,28.329 L39.525,84.059 Q39.347,84.234 39.171,84.055 Q38.996,83.877 39.175,83.701 Z" fill="#CFD8DC"/>
  <path d="M40.91,89.51 L29.52,79.17 C29.52,79.17 32.51,76.59 34.36,78.45 C34.36,78.45 38.43,81.66 40.4,83.8 C42.36,85.94 40.91,89.51 40.91,89.51 Z" fill="#A65F3E"/>
  <path d="M110.7,34.34 C109.07,35.51 107.04,35.71 106.12,34.46 C105.04,33.01 106.39,31.66 105.56,30.24 C105.3,29.79 104.91,29.43 104.67,28.97 C104.43,28.51 104.38,27.88 104.77,27.53 C105.64,26.77 106.5,27.67 106.76,27.92 C108.63,29.71 108.77,29.17 110.12,29.06 C111.91,28.92 112.79,29.92 112.78,31.03 C112.77,32.19 111.8,33.54 110.7,34.34 Z" fill="#455A64"/>
  <path d="M119.51,29.94 C117.96,31.21 115.91,31.26 114.93,30.06 C114.49,29.52 114.36,29 114.44,28.13 C114.59,26.43 114.16,25.69 113.74,25.34 C113.49,25.13 113.29,24.89 113.06,24.69 C112.64,24.34 112.69,23.88 112.84,23.59 C112.99,23.3 113.54,23.06 113.86,23.09 C114.44,23.15 114.9,23.58 115.37,23.94 C116.98,25.2 117.81,24.78 118.74,24.77 C119.67,24.76 120.26,25.14 120.53,25.47 C121.52,26.67 121.06,28.68 119.51,29.94 Z" fill="#455A64"/>
</svg>

<svg viewBox="0 0 128 128" xmlns="http://www.w3.org/2000/svg">
  <g>
    <g>
      <polygon points="67.96,113.21 66.17,112 114.82,40.52 116.6,41.73 " fill="#F7CF92"/>
      <path d="M114.82,40.52c0.01,0,4.83,3.25,4.83,3.25L69.84,117.5l2.93,3.36l50.09-74.13 c2.26-3.59,1.06-5.19-0.35-6.09c-1.2-0.75-2.15-0.57-1.53-1.11c0.51-0.46,1.36-1.1,1.07-1.66c-0.3-0.58-0.83-1.3-3.1-0.2 C116.45,38.88,114.71,40.45,114.82,40.52z" fill="#FF7043"/>
      <path d="M76.29,115.65c-1.19-0.78-3.89-2.06-4.93-0.44l-0.06,0.1c-0.37,0.55-0.51,0.8-1.04,0.46l-2.14-1.36 c-0.38-0.25-0.54-0.65-0.17-1.2l0.23-0.35c0.45-0.66-0.01-1.73-1-2.38l-2.51,3.9c-0.68,1.02-0.39,2.04,0.5,2.63l3.58,2.29 l-0.6,0.89c-0.5,0.76-0.2,1.85,0.69,2.44l0.29,0.19c0.89,0.59,2.02,0.45,2.53-0.31l1.05-1.56L76.29,115.65z" fill="#455A64"/>
    </g>
    <g>
      <path d="M90.38,24.12c-0.58-0.05-1.16,0.12-1.67,0.36c-1.39,0.66-2.41,0.14-2.9-0.45 c-0.98-1.2-0.53-3.2,1.02-4.47c1.55-1.27,3.6-1.32,4.58-0.12c0.41,0.5,0.56,1.16,0.51,1.8c-0.03,0.31-0.17,0.51-0.01,0.81 c0.14,0.26,0.61,0.59,1.25,1.13c0.27,0.23-0.65,1.78-0.97,1.64C90.81,24.19,90.63,24.14,90.38,24.12z" fill="#455A64"/>
      <ellipse cx="97.85" cy="16.68" rx="3.62" ry="2.81" fill="#455A64" transform="matrix(0.7738 -0.6335 0.6335 0.7738 11.5675 65.758)"/>
      <path d="M74.92,53.32c-0.3-0.29-0.59-0.54-0.89-0.81l-58.02,56.55c5.35,6.43,13.33,12.46,23.5,13.95 c9.23,1.35,15.04-3.43,18.51-11.1c1.15-2.54,3.14-5.89,4.9-6.64c0.66-0.28,1.55-0.75,1.28-1.66c-0.12-0.41-0.48-0.52-1.07-1.07 c-0.47-0.44-0.96-1.09-1.07-1.23c-3.01-3.78-5.08-6.12-0.73-10.76c4.24-4.53,9.11-4.64,11.3-2.58c0.4,0.37,0.95,0.51,1.45,0.3 c0.07-0.03,0.13-0.06,0.2-0.08c0.67-0.28,0.97-1.02,0.78-1.72c-0.4-1.41-0.1-2.65,0.47-3.89C77.22,78.92,92.14,69.97,74.92,53.32 z" fill="#A65F3E"/>
      <line fill="none" stroke="#FF7043" stroke-width="2.5166" stroke-miterlimit="10" x1="100.22" x2="70.37" y1="27.52" y2="58.01"/>
      <path d="M71.32,49.37c-18.88-16.17-26.71,4.43-32.73,2.9c-1.43-0.36-2.33,1.13-1.67,2.43 c0.31,0.61,2.48,4.06-1.34,8.35c-2.76,3.09-5.61,3.9-8.25,3.08c-0.79-0.25-1.55-0.79-2.23-1.03c-0.68-0.24-1.53-0.02-1.72,1.98 c-0.11,1.18-0.71,2.03-2.52,2.76c-3.53,1.41-6.7,2.73-9.58,4.94c-6.19,4.76-9.3,11.94-5.37,20.74s14.5,21.65,30.08,24.03 c9.34,1.43,15.18-3.37,18.64-11.09c1.14-2.55,2.72-5.59,4.5-6.33c0.67-0.28,1.36-0.53,1.38-1.37c0.02-0.81-1.26-1.27-2.34-2.51 c-2.63-3.02-4.63-6.75-0.3-11.37c4.26-4.54,9.18-4.63,11.41-2.53c0.4,0.38,0.97,0.52,1.48,0.31c0.06-0.03,0.12-0.05,0.18-0.08 c0.68-0.28,0.99-1.03,0.78-1.74c-0.41-1.43-0.12-2.67,0.45-3.93C73.82,75.25,91.22,66.41,71.32,49.37z" fill="#FF7043"/>
      <path d="M15.02,80.78c2.2,2.14,3.93,4.96,4.31,7.87c0.44,3.45-1.04,6.53-2.97,8.95 c-0.72,0.91-1.82,1.92-1.99,3.86c-0.32,3.61,2.13,4.41,2.7,5.27c0.57,0.86,0.86,2.08,0.22,2.67c-0.47,0.43-1.28,0.33-1.91-0.06 c-0.63-0.39-1.06-1.05-1.55-1.62c-6.12-7.05-10.24-12.74-9.67-21.9c0.11-1.75,2.67-8.84,4.58-9.39 C10.53,75.9,13.66,79.46,15.02,80.78z" fill="#455A64"/>
      <line fill="none" stroke="#CFD8DC" stroke-width="0.5" stroke-miterlimit="10" x1="32.48" x2="27.79" y1="79.08" y2="89.09"/>
      <line fill="none" stroke="#CFD8DC" stroke-width="0.5" stroke-miterlimit="10" x1="34.85" x2="29.22" y1="80.5" y2="90.31"/>
      <line fill="none" stroke="#CFD8DC" stroke-width="0.5" stroke-miterlimit="10" x1="37.54" x2="30.5" y1="82.1" y2="91.42"/>
      <line fill="none" stroke="#CFD8DC" stroke-width="0.5" stroke-miterlimit="10" x1="39.35" x2="32.1" y1="83.88" y2="93.02"/>
      <path d="M103.95,30.31c3.22-4.33,6.08-4.92,10.29-6.08c4.88-1.34,8.64-2.18,9.54-7.28 c1.15-6.49-5.52-11.97-11.03-12.18c-2.52-0.1-6.01,1.67-6.08,4.99c-0.05,2.49,1.52,3.67,2.5,4.58 c-2.8,2.36-16.57,2.63-18.29,11.92c-0.84,4.53-0.07,4.11,3.56,6.38C95.92,33.56,100.33,35.17,103.95,30.31z" fill="#FF7043"/>
      <path d="M110.82,15.53c0,0,2.58,2.05,3.34,2.42c0,0-7.5,3.03-11.17,4.62c-6.08,2.64-7.25,7.96-7.25,7.96 c-1.87,2.12-37.87,38.32-37.87,38.32l-9.32-6.97c0,0,41.19-34.85,46.99-39.43C99.66,19.21,110.82,15.53,110.82,15.53z" fill="#455A64"/>
      <path d="M116.61,19.94c-2.48-0.51-2.85-2.25-2.85-2.25s2.64,2.21,5.13,0.44c0.96-0.68,1.11-1.54,1.05-1.91 c-0.26-1.69-2.01-1.06-2.04-1.04c-0.46,0.3-0.82,0.14-1.12-0.19c-0.3-0.32-0.09-0.91,0.37-1.21c1.35-0.86,4.78-0.62,4.51,2.92 C121.43,19.92,118.31,20.3,116.61,19.94z" fill="#37474F"/>
      <path d="M50.28,98.13c0.44-0.8-0.05-2.06-1.06-2.26l0.05-0.05c-0.75-0.09-1.48,0.34-1.72,1.01 c-3.69-2.29,1.68-7.8,3.3-9.71c3.31-3.92,4.16-7.24,1.25-9.05c-0.01,0-1.07-0.71-1.72-0.38c-1.03,0.51-1.23,1.39-1.13,1.75 c0.31,1.14,1.82,2.11,2.76,0.51c1.27,4.14-6.93,8.35-7.3,13.57c-0.64,2.54,2.56,6.28,4.95,5.32l-0.02-0.04 C49.91,98.64,50.14,98.41,50.28,98.13z" fill="#37474F"/>
      <path d="M22.49,72.2c0.67-0.47,1.84-0.16,2.13,0.71l0.04-0.05c0.16,0.66-0.14,1.35-0.7,1.64 c2.46,3.05,6.76-2.3,8.27-3.93c3.11-3.35,5.97-4.45,7.92-2.05c0.01,0,0.75,0.88,0.54,1.49c-0.34,0.97-1.09,1.24-1.43,1.19 c-1.05-0.16-2.08-1.4-0.76-2.4c-3.83-0.71-6.65,7.02-11.25,7.9c-2.19,0.83-5.88-1.63-5.3-3.86l0.04,0.01 C22.07,72.59,22.25,72.35,22.49,72.2z" fill="#37474F"/>
      <path d="M123.38,12.57c-0.86-1.29-1.78-1.44-3.06-1.65c-1.28-0.2-2.63-0.02-3.58,0.56 c-3.35,1.98-3.24,4.59-2.98,6.22c-0.98-0.66-2.27-4.02,0.77-7.02c1.51-1.49,4.31-1.97,6.2-1.25 C122.74,10.22,123.38,12.57,123.38,12.57z" fill="#F7CF92"/>
      <path d="M34.24,94.5c0,0-2.29,2.47-4.77,3.57c-1.66,0.74-2.2,1.13-3.67,1.97c-1.47,0.84-7.5,8.21-7.5,8.21 c-0.33,0.49-0.67,1-1.28,1.19s-2.22-1.66-2.22-1.66S20.18,97.36,22.53,93c1.99-3.7,4.37-5.49,4.37-5.49L34.24,94.5z" fill="#455A64"/>
      <line fill="none" stroke="#CFD8DC" stroke-width="0.5" stroke-linecap="round" stroke-miterlimit="10" x1="32.48" x2="93.21" y1="79.08" y2="25.35"/>
      <line fill="none" stroke="#CFD8DC" stroke-width="0.5" stroke-linecap="round" stroke-miterlimit="10" x1="34.85" x2="94.18" y1="80.5" y2="26.29"/>
      <line fill="none" stroke="#CFD8DC" stroke-width="0.5" stroke-linecap="round" stroke-miterlimit="10" x1="37.54" x2="95.13" y1="82.1" y2="27.22"/>
      <line fill="none" stroke="#CFD8DC" stroke-width="0.5" stroke-linecap="round" stroke-miterlimit="10" x1="39.35" x2="96.19" y1="83.88" y2="28.15"/>
      <path d="M40.91,89.51L29.52,79.17c0,0,2.99-2.58,4.84-0.72c0,0,4.07,3.21,6.04,5.35 C42.36,85.94,40.91,89.51,40.91,89.51z" fill="#A65F3E"/>
      <path d="M110.7,34.34c-1.63,1.17-3.66,1.37-4.58,0.12c-1.08-1.45,0.27-2.8-0.56-4.22 c-0.26-0.45-0.65-0.81-0.89-1.27c-0.24-0.46-0.29-1.09,0.1-1.44c0.87-0.76,1.73,0.14,1.99,0.39c1.87,1.79,2.01,1.25,3.36,1.14 c1.79-0.14,2.67,0.86,2.66,1.97C112.77,32.19,111.8,33.54,110.7,34.34z" fill="#455A64"/>
      <path d="M119.51,29.94c-1.55,1.27-3.6,1.32-4.58,0.12c-0.44-0.54-0.57-1.06-0.49-1.93 c0.15-1.7-0.28-2.44-0.7-2.79c-0.25-0.21-0.45-0.45-0.68-0.65c-0.42-0.35-0.37-0.81-0.22-1.1s0.7-0.53,1.02-0.5 c0.58,0.06,1.04,0.49,1.51,0.85c1.61,1.26,2.44,0.84,3.37,0.83s1.52,0.37,1.79,0.7C121.52,26.67,121.06,28.68,119.51,29.94z" fill="#455A64"/>
    </g>
  </g>
</svg>
